Flat-Remix-Dark/apps/scalable/mkvmergeGUI.svg

<svg xmlns="http://www.w3.org/2000/svg" xmlns:xlink="http://www.w3.org/1999/xlink" width="384pt" height="384pt" version="1.1" viewBox="0 0 384 384"> <defs> <filter id="alpha" width="100%" height="100%" x="0%" y="0%" filterUnits="objectBoundingBox"> <feColorMatrix in="SourceGraphic" type="matrix" values="0 0 0 0 1 0 0 0 0 1 0 0 0 0 1 0 0 0 1 0"/> </filter> <mask id="mask0"> <g filter="url(#alpha)"> <rect width="384" height="384" x="0" y="0" style="fill:rgb(0%,0%,0%);fill-opacity:0.2"/> </g> </mask> <clipPath id="clip1"> <rect width="384" height="384" x="0" y="0"/> </clipPath> <g id="surface5" clip-path="url(#clip1)"> <path style="fill:rgb(0%,0%,0%)" d="M 24 336 L 24 348 C 24 357.972656 32.027344 366 42 366 L 342 366 C 351.972656 366 360 357.972656 360 348 L 360 336 C 360 345.972656 351.972656 354 342 354 L 42 354 C 32.027344 354 24 345.972656 24 336 Z M 24 336"/> </g> <mask id="mask1"> <g filter="url(#alpha)"> <rect width="384" height="384" x="0" y="0" style="fill:rgb(0%,0%,0%);fill-opacity:0.101961"/> </g> </mask> <clipPath id="clip2"> <rect width="384" height="384" x="0" y="0"/> </clipPath> <g id="surface8" clip-path="url(#clip2)"> <path style="fill:rgb(100.000%,100.000%,100.000%)" d="M 42 24 C 32.027344 24 24 32.027344 24 42 L 24 48 C 24 38.027344 32.027344 30 42 30 L 342 30 C 351.972656 30 360 38.027344 360 48 L 360 42 C 360 32.027344 351.972656 24 342 24 Z M 42 24"/> </g> </defs> <g> <use mask="url(#mask0)" xlink:href="#surface5"/> <path style="fill:rgb(100.000%,100.000%,100.000%)" d="M 360 342 L 360 42 C 360 32.058594 351.941406 24 342 24 L 42 24 C 32.058594 24 24 32.058594 24 42 L 24 342 C 24 351.941406 32.058594 360 42 360 L 342 360 C 351.941406 360 360 351.941406 360 342 Z M 360 342"/> <use mask="url(#mask1)" xlink:href="#surface8"/> <path style="fill:none;stroke-width:1.43;stroke:rgb(29.803%,29.803%,29.803%)" d="M 45.623698 25.434245 C 50.484375 33.561198 49.544271 43.065755 43.522135 46.684896 C 37.5 50.304036 28.666667 46.672526 23.772135 38.565755 C 18.911458 30.438802 19.851562 20.934245 25.873698 17.315104 C 31.895833 13.695964 40.729818 17.327474 45.623698 25.434245 Z M 45.623698 25.434245" transform="matrix(6,0,0,6,0,0)"/> <path style="fill:rgb(16.862%,38.431%,75.294%)" d="M 204 144 C 170.855469 144 144 170.847656 144 204 C 144 237.152344 170.847656 264 204 264 C 237.152344 264 264 237.152344 264 204 C 264 170.847656 237.152344 144 204 144 Z M 193.269531 175.707031 C 215.808594 175.707031 234.242188 193.902344 234.242188 216.441406 C 234.242188 238.980469 215.808594 257.414062 193.269531 257.414062 C 170.730469 257.414062 152.539062 238.980469 152.539062 216.441406 C 152.539062 193.902344 170.730469 175.707031 193.269531 175.707031 Z M 193.269531 175.707031"/> <path style="fill:rgb(29.803%,29.803%,29.803%)" d="M 82.324219 197.953125 C 82.324219 197.953125 58.222656 220.96875 60.105469 235.339844 C 62.703125 255.167969 87.597656 258.328125 107.246094 258.101562 C 154.882812 257.5625 324.554688 201.894531 324.003906 135.101562 C 323.824219 113.511719 284.992188 111.605469 284.992188 112.882812 C 284.992188 112.882812 313.792969 120.109375 313.167969 134.015625 C 310.824219 185.851562 169.105469 244.046875 106.167969 245.640625 C 92.957031 245.976562 74.570312 243.117188 69.3125 231 C 64.605469 220.140625 82.320312 197.949219 82.320312 197.949219 Z M 82.324219 197.953125"/> <path style="fill:rgb(99.215%,28.627%,28.627%)" d="M 276 138 C 276 154.570312 262.570312 168 246 168 C 229.429688 168 216 154.570312 216 138 C 216 121.429688 229.429688 108 246 108 C 262.570312 108 276 121.429688 276 138 Z M 276 138"/> <path style="fill:rgb(29.803%,29.803%,29.803%)" d="M 192 234.011719 C 192 243.953125 183.941406 252.011719 174 252.011719 C 164.058594 252.011719 156 243.953125 156 234.011719 C 156 224.070312 164.058594 216.011719 174 216.011719 C 183.941406 216.011719 192 224.070312 192 234.011719 Z M 192 234.011719"/> </g> </svg>

<svg width="512" height="512" version="1.1" viewBox="0 0 384 384" xmlns="http://www.w3.org/2000/svg" xmlns:xlink="http://www.w3.org/1999/xlink"><defs><filter id="alpha" x="0%" y="0%" width="100%" height="100%"><feColorMatrix in="SourceGraphic" values="0 0 0 0 1 0 0 0 0 1 0 0 0 0 1 0 0 0 1 0"/></filter><clipPath><rect width="384" height="384"/></clipPath><mask id="b"><g filter="url(#alpha)"><rect width="384" height="384" fill-opacity=".10196"/></g></mask><clipPath id="c"><rect width="384" height="384"/></clipPath><g id="a" clip-path="url(#c)"><path d="m42 24c-9.9727 0-18 8.0273-18 18v6c0-9.9727 8.0273-18 18-18h300c9.9727 0 18 8.0273 18 18v-6c0-9.9727-8.0273-18-18-18z" fill="#fff"/></g></defs><path d="m360 342v-300c0-9.9414-8.0586-18-18-18h-300c-9.9414 0-18 8.0586-18 18v300c0 9.9414 8.0586 18 18 18h300c9.9414 0 18-8.0586 18-18z" fill="#fff" opacity=".2" stroke="#000" stroke-width="7.5"/><path d="m360 342v-300c0-9.9414-8.0586-18-18-18h-300c-9.9414 0-18 8.0586-18 18v300c0 9.9414 8.0586 18 18 18h300c9.9414 0 18-8.0586 18-18z" fill="#fff"/><use mask="url(#b)" xlink:href="#a"/><path transform="scale(6)" d="m45.624 25.434c4.8607 8.127 3.9206 17.632-2.1016 21.251-6.0221 3.6191-14.855-0.01237-19.75-8.1191-4.8607-8.127-3.9206-17.632 2.1016-21.251 6.0221-3.6191 14.856 0.01237 19.75 8.1191z" fill="none" stroke="#4b4b4b" stroke-width="1.43"/><path d="m204 144c-33.145 0-60 26.848-60 60s26.848 60 60 60 60-26.848 60-60-26.848-60-60-60zm-10.73 31.707c22.539 0 40.973 18.195 40.973 40.734 0 22.539-18.434 40.973-40.973 40.973-22.539 0-40.73-18.434-40.73-40.973 0-22.539 18.191-40.734 40.73-40.734z" fill="#2a61bf"/><path d="m82.324 197.95s-24.102 23.016-22.219 37.387c2.5977 19.828 27.492 22.988 47.141 22.762 47.637-0.53906 217.31-56.207 216.76-123-0.17969-21.59-39.012-23.496-39.012-22.219 0 0 28.801 7.2266 28.176 21.133-2.3438 51.836-144.06 110.03-207 111.62-13.211 0.33594-31.598-2.5234-36.855-14.641-4.707-10.859 13.008-33.051 13.008-33.051z" fill="#4b4b4b"/><path d="m276 138c0 16.57-13.43 30-30 30s-30-13.43-30-30 13.43-30 30-30 30 13.43 30 30z" fill="#fc4848"/><path d="m192 234.01c0 9.9414-8.0586 18-18 18s-18-8.0586-18-18c0-9.9414 8.0586-18 18-18s18 8.0586 18 18z" fill="#4b4b4b"/><path transform="scale(.75)" d="m32 446v10c0 13.255 10.745 24 24 24h400c13.255 0 24-10.745 24-24v-10c0 13.255-10.745 24-24 24h-400c-13.255 0-24-10.745-24-24z" opacity=".3" stroke-width="1.3333"/><path transform="scale(.75)" d="m56 32c-13.255 0-24 10.745-24 24v10c0-13.255 10.745-24 24-24h400c13.255 0 24 10.745 24 24v-10c0-13.255-10.745-24-24-24h-400z" opacity=".1" stroke-width="1.3333"/></svg>
